X: 27114
T: Miss Maria Dundas
R: reel
M: 4/4
K: Fmajor
f|cF F/F/F c2 Ac|dfef cAAf|cF F/F/F c2 Ac|dfcA G/G/G G:|
g|faga fddf|cfAf cAAc|faga fddf|cfcA G/G/G Gg|
faga fddf|cfAf cAAc|faga fgdf|cdcA G/G/G G||

